!!!COM: Palestrina, Giovanni Perluigi da
!!!OPR: Missa Spem In Alium
!!!OMD: Credo
!!!OTL: Et ascendit
**kern	**kern	**kern
*Ibass	*Icalto	*Icant
!Bassus	!Altus	!Cantus
*clefF4	*clefG2	*clefG2
*k[]	*k[]	*k[]
*A:aeo	*A:aeo	*A:aeo
*M4/2	*M4/2	*M4/2
=135	=135	=135
0r	1r	0a
.	[1d	.
=136	=136	=136
0r	1d]	1dd
.	1a	1cc
=137	=137	=137
0r	1f	2a
.	.	2a
.	2d	2.ff
.	2d	.
.	.	4ee
=138	=138	=138
0r	2.b-	4dd
.	.	4cc
.	.	2dd
.	4a	.
.	4g	2ee
.	4f	.
.	2g	2dd
=139	=139	=139
0A	2.a	2cc
.	.	4a
.	4g	4b
.	2f	4cc
.	.	4dd
.	2e	[2ee
=140	=140	=140
1d	1f	2ee]
.	.	2dd
1c	1e	[1ee
=141	=141	=141
2A	2r	1ee]
2A	2e	.
2.f	1a	1r
4e	.	.
=142	=142	=142
4d	1f	0a
4c	.	.
1d	.	.
.	2d	.
2c	2e	.
=143	=143	=143
1B-	2f	1dd
.	2g	.
[1A	2a	1cc
.	2a	.
=144	=144	=144
1A]	2.cc	2a
.	.	2a
.	4b	.
[1D	4a	2.ff
.	4g	.
.	2a	.
.	.	4ee
=145	=145	=145
1D]	1f	4dd
.	.	4cc
.	.	2dd
1A	1e	2cc
.	.	2a
=146	=146	=146
1F	1A	4cc
.	.	4b
.	.	4a
.	.	4g
2D	[1f	4a
.	.	4g
2D	.	4f
.	.	4e
=147	=147	=147
1B-	2f]	2d
.	4e	1dd
.	4d	.
2.A	1e	.
.	.	2cc#
4G	.	.
=148	=148	=148
2F	1d	0dd
1G	.	.
.	2r	.
4F	2d	.
4E	.	.
=149	=149	=149
0D	2d	2r
.	2d	2a
.	1f	2a
.	.	2a
=150	=150	=150
0r	2e	1cc
.	2c	.
.	[1g	2b
.	.	2g
=151	=151	=151
0r	2g]	1.dd
.	4f	.
.	4e	.
.	2d	.
.	2e	4cc
.	.	4b
=152	=152	=152
2r	2f	2.a
2A	2e	.
.	.	4b
2A	2r	1cc
2A	2e	.
=153	=153	=153
1c	2e	1g
.	2e	.
2B	1g	1r
2G	.	.
=154	=154	=154
1.d	2f	1a
.	2d	.
.	2f	2a
4c	4e	2a
4B	4d	.
=155	=155	=155
1A	2e	1cc
.	2f#	.
2.G	[1g	2b
.	.	2g
4A	.	.
=156	=156	=156
4B	2g]	2.dd
4c	.	.
1d	4f	.
.	4e	8cc
.	.	8b
.	4f	2a
.	4g	.
2A	[2a	2cc
=157	=157	=157
1e	2a]	1b
.	2g#	.
2r	1a	[1a
2A	.	.
=158	=158	=158
1d	2r	1a]
.	2d	.
2d	1a	1r
[2d	.	.
=159	=159	=159
2d]	2a	0r
2c	1a	.
2d	.	.
2e	2g	.
=160	=160	=160
2f	2a	0r
4e	2b	.
4d	.	.
2c	4cc	.
.	4b-	.
[2d	4a	.
.	4g	.
=161	=161	=161
2d]	2f	1a
2c	2e	.
1B-	2f	1dd
.	2d	.
=162	=162	=162
1G	2.g	2dd
.	.	1dd
.	4f	.
1A	2e	.
.	[2f	2cc
=163	=163	=163
1r	4f]	2dd
.	4e	.
.	2c	2ee
1D	1d	2ff
.	.	4ee
.	.	4dd
=164	=164	=164
1A	2r	2cc
.	2A	2.ee
2A	1e	.
.	.	4dd
[2A	.	4cc
.	.	4b
=165	=165	=165
2A]	2e	2cc
2G	1e	2b
2A	.	2a
2B	2d	2g
=166	=166	=166
2c	2e	2.a
2d	2f	.
.	.	4b
2.e	2.g	2cc
.	.	[2b
4d	4f	.
=167	=167	=167
2c	2e	4b]
.	.	4a
2d	2f	1a
2B	1d	.
2B	.	2g#
=168	=168	=168
1A	2r	[0a
.	1c	.
2r	.	.
[2F	2A	.
=169	=169	=169
2F]	2c	1a]
2D	1d	.
2F	.	1r
2G	[2e	.
=170	=170	=170
1A	2e]	2r
.	2c	1cc
2.F	[1f	.
.	.	2a
4G	.	.
=171	=171	=171
4A	2f]	1cc
4B	.	.
1c	2e	.
.	2d	1dd
2B	2d	.
=172	=172	=172
2.c	1c	1ee
4B	.	.
4A	2r	2cc
4G	.	.
4F	[2f	2cc
4E	.	.
=173	=173	=173
1D	2f]	2.ff
.	2d	.
.	.	4ee
1r	2f	2dd
.	2g	2dd
=174	=174	=174
2r	2.a	2.cc
1F	.	.
.	4g	4b
.	4f	4a
.	4e	4g
2D	[2f	[2a
=175	=175	=175
2F	4f]	2a]
.	4e	.
2G	1d	4g
.	.	4f
1A	.	1e
.	2c	.
=176	=176	=176
2F	1f	1a
2F	.	.
2.B-	1d	2f
.	.	2f
4A	.	.
=177	=177	=177
2G	1.g	1.b-
2G	.	.
1D	.	.
.	2f#	2a
=178	=178	=178
2r	1f#	0a
1d	.	.
.	2r	.
2A	[2a	.
=179	=179	=179
1d	2a]	0r
.	2d	.
2d	1a	.
2c	.	.
=180	=180	=180
2f	2a	1r
2e	2g	.
1d	2b-	2r
.	2a	[2dd
=181	=181	=181
0G	2.b-	2dd]
.	.	2g
.	4a	.
.	2g	1dd
.	2f	.
=182	=182	=182
1A	2e	2dd
.	1a	2cc
1r	.	2.ff
.	2d	.
.	.	4ee
=183	=183	=183
0r	1g	2dd
.	.	2cc
.	2g	2b-
.	2f	2a
=184	=184	=184
2r	2b-	2g
1d	1a	2f
.	.	1b-
2G	[2g	.
=185	=185	=185
1d	2g]	0a
.	4f	.
.	4e	.
2d	2f	.
2c	2e	.
=186	=186	=186
2.f	2.d	2r
.	.	1dd
4e	4e	.
2d	4f	.
.	4g	.
2c	[2a	2a
=187	=187	=187
1B-	2a]	1dd
.	2g	.
1A	[1a	2dd
.	.	2cc
=188	=188	=188
2r	1a]	2.ff
2F	.	.
.	.	4ee
2B-	1r	2dd
2A	.	2cc
=189	=189	=189
1G	2r	2.b-
.	1g	.
.	.	8a
.	.	8g
[1G	.	[1b-
.	2d	.
=190	=190	=190
1G]	1g	1b-]
2r	2g	1a
[2d	2f	.
=191	=191	=191
2d]	1b-	2r
2G	.	2dd
1d	2a	2.ff
.	[2f	.
.	.	4ee
=192	=192	=192
2d	2f]	1.dd
2G	1b-	.
2B-	.	.
2F	2a	2cc
=193	=193	=193
0G	0g	0b-
=194	=194	=194
0D	0f#	0a
*-	*-	*-
!!!CDT: 1525/^1526/-1594/2/2
!!!OCY: Italia
!!!AGN: Mass (Parody)
!!!AST: renaissance, vocal
!!!ASW: Motet 1539 (Jacquet)
!!!PWK: Masses, Book 3
!!!RNB: Cadence finals: D
!!!YOR: Le Opere Complete, v. 6, p. 1
!!!YOO: Rome, Italy: Fratelli Scalera
!!!END: 1992//
!!!EED: John Miller
!!!YEC: Copyright 2000, John Miller
!!!YEN: United States of America
!!!YEM: Rights to all derivative electronic formats reserved.
!!!YEM: Refer to licensing agreement for further details.
!!!YEM: This file must be accompanied by the licensing agreement.
!!!YEM: A copy of the licensing agreement may be found at http://www.music-cog.ohio-state.edu/HumdrumDatabases/Palestrina/license.txt
!!!EMD: converted to Humdrum by Bret Aarden
